X:1
T:Beata viscera - Aichinger
T:#
%%score [ 1 2 3 4 ]
L:1/8
Q:1/4=80
M:none
K:Bb
V:1 treble nm="Soprano" snm="S"
V:2 treble nm="Alto" snm="A"
V:3 treble-8 nm="Tenor" snm="T"
V:4 bass nm="Bass" snm="B"
V:1
 x4 z8 x4 ||[M:4/4]"^Beata viscera"[Q:1/4=100] G4 A4 | B2 G2 B4 | %3
w: |Ma- ri-|ae, Ma- ri-|
"^Gregor Aichinger\n(1561-1628)" A4 G2 B2- |[M:4/4] B2 A2 (Bcde | f2) f2 e2 d2 | (c3 d e2) d2 | %7
w: ae Vir- *|* gi- nis, * * *|* Ma- ri- ae|Vir\- * * gi-|
 d2 B2 B2 B2 | f4 d2 d2 | e4 d4 | f6 d2 | (B3 c d2) d2 | (G3 A B3 c | d2) d2 d2 d2 | f4 e2 d2 | %15
w: nis, quae por- ta-|ve- runt ae-|ter- ni|Pa- tris|Fi\- * * li-|um, * * *|* quae por- ta-|ve- runt ae-|
 c6 =B2 | c2 e2 (dcBA | G2) G2 F4 | z2 B2 B2 B2 | f4 e2 c2 | (e4 d3 c) | B2 c2 d4 | %22
w: ter- ni|Pa- tris Fi\- * * *|* li- um,|quae por- ta-|ve- runt ae-|ter\- * *|* ni Pa-|
"^rall."[Q:1/4=95] G4[Q:1/4=91] (d3[Q:1/4=89] c | %23
w: tris Fi\- *|
[Q:1/4=87] =B2[Q:1/4=85] c2-[Q:1/4=83] c[Q:1/4=82]B/[Q:1/4=82]A/[Q:1/4=81] B)[Q:1/4=80]B | %24
w: * * * * * * li-|
[Q:1/4=80] !fermata!c8 |] %25
w: um.|
V:2
 x4 z8 x4 ||[M:4/4] z8 | z4 B,4 | C2 D2 (E3 D) |[M:4/4] C2 C2 B,4 | C4 (G3 F | E2) F2 G3 G | %7
w: ||Ma-|ri- ae Vir\- *|* gi- nis,|Ma- ri\- *|* ae Vir- gi-|
 G4 G4 | A2 A2 B4 | G4 z2 G2 | A2 A2 (F4 | G4) F4 | z2 G2 G2 G2 | (F4 G4) | _A2 A2 (G3 F | %15
w: nis, quae|por- ta- ve-|runt, quae|por- ta- ve\-|* runt|ae- ter- ni|Pa\- *|tris ae- ter\- *|
 E2) F2 (G3 F | E2) C2 (F4 | E3 D C2) C2 | B,4 z2 B,2 | B,2 B,2 C4 | G,2 G2 G2 F2 | %21
w: * ni Pa\- *|* tris Fi\-|* * * li-|um, quae|por- ta- ve-|runt ae- ter- ni|
 (G3 F/E/ F2) D2 |"^rall." (E2 G4 ^F2 | G3 !courtesy!=F/E/ D2) D2 | !fermata!=E8 |] %25
w: Pa\- * * * tris|Fi\- * *|* * * * li-|um.|
V:3
 x4 z8 x4 ||[M:4/4] z2 e2 d2 c2 | (B3 c d2) e2 | f4 B4 |[M:4/4][K:treble-8] (f3 e dc B2- | %5
w: |Ma- ri- ae|Vir\- * * gi-|nis, Vir\-||
 B2) A2 B4 | z4 z2 B2 | B2 B2 (e3 d | c4) B4 | z2 B2 B2 B2 | c4 d4 | z2 B2 B2 B2 | e4 d4- | d4 B4 | %14
w: * gi- nis,|quae|por- ta- ve\- *|* runt,|quae por- ta-|ve- runt|quae por- ta-|ve- runt|* ae-|
 c6 =B2 | (c3 d e2) d2 | (cB/A/ GA Bcdc | BGcB A B2 A) | (B3 A G4) | F4 G4 | c4 B2 A2 | (G4 A3 B | %22
w: ter- ni|Pa\- * * tris|Fi\- * * * * * * * *|||li- um,|ae- ter- ni|Pa\- * *|
"^rall." c2) B2 A4 | G8 | !fermata!G8 |] %25
w: * tris Fi-|li-|um.|
V:4
 C,E, (E,D,) (E,F,) (D,E,D,C,) (D,2 C,2) z2 ||[M:4/4] E,4 (F,4 | G,4) (G,4 | F,4 E,4) | %4
w: Be- a- ta * vi\- * sce\- * * * ra *|Ma- ri\-|* ae||
[M:4/4] (F,4 G,4 | F,4 G,4 | _A,4) G,4 | G,4 E,4 | (F,4 G,4) | G,4 (G,4 | F,4 D,4 | E,4) (D,4 | %12
w: Vír\- *||* gi-|nis, quae|por\- *|ta- ve\-||* runt|
 C,4) G,4 | (B,4 G,4) | (F,4 G,4 | _A,4) G,4 | (C,4 B,,4 | E,4 F,4) | G,4 (E,4 | D,4) C,4 | %20
w: * ae-|ter\- *||* ni|Pa\- *||* tris|* Fi-|
 (C,4 D,4) | (E,4 D,4 |"^rall." C,4 D,4 | G,,8) | !fermata!C,8 |] %25
w: li\- *||||um.|

